packages/katcn/src/icons/svg/send.svg

<svg width="24" height="24" viewBox="0 0 24 24" fill="none" xmlns="http://www.w3.org/2000/svg">
<path fill-rule="evenodd" clip-rule="evenodd" d="M22.8223 5.00708C23.6953 2.5132 21.3183 0.454926 19.0155 1.13441C19.0018 1.13846 18.9881 1.14281 18.9745 1.14745L3.03526 6.60548C0.261274 7.49558 0.342648 11.4024 3.15653 12.2493C3.16605 12.2522 3.17561 12.2549 3.18521 12.2575L8.53347 13.6947C8.54475 13.6977 8.55607 13.7006 8.56744 13.7032C9.38416 13.8923 10.0117 14.5238 10.315 15.4969L11.7414 20.8395C11.7416 20.8403 11.7418 20.8411 11.742 20.8419C12.489 23.6812 16.393 23.6924 17.3721 21.0263L17.3801 21.0037L22.8223 5.00708ZM19.5995 3.04745C20.5329 2.78483 21.2 3.59209 20.9338 4.34867L15.4911 20.3466C15.1286 21.3098 13.8849 21.1287 13.676 20.3321L12.2423 14.9622C12.2391 14.9504 12.2357 14.9386 12.2322 14.9269C11.7711 13.4237 10.6883 12.1488 9.03673 11.759L3.72067 10.3304C2.73132 10.0222 2.81169 8.77426 3.65125 8.50827L3.67319 8.50104L19.5995 3.04745Z" fill="black"/>
</svg>

<svg xmlns="http://www.w3.org/2000/svg" fill="none" viewBox="0 0 24 24"><path fill="#000" fill-rule="evenodd" d="M22.822 5.007c.873-2.494-1.504-4.552-3.806-3.873l-.041.013-15.94 5.458c-2.774.89-2.692 4.797.122 5.644l.028.008 5.348 1.438.034.008c.817.19 1.445.82 1.748 1.794l1.426 5.343.001.002c.747 2.84 4.651 2.85 5.63.184l.008-.022zM19.6 3.047c.933-.262 1.6.545 1.334 1.302L15.49 20.347c-.362.963-1.606.782-1.815-.015l-1.434-5.37-.01-.035c-.46-1.503-1.544-2.778-3.195-3.168L3.72 10.33c-.99-.308-.91-1.556-.07-1.822l.022-.007z" clip-rule="evenodd"/></svg>
